!!!!SEGMENT: pl-wtm--r-1549--003_stefani-jozef--msza-no-8-credo.krn
!!!cenid: 18xx:1804
!!!COM: Stefani, Józef
!!!COM-rismid: pe30024097
!!!CDT: 1800/04/16-1876/03/19
!!!CNT: Polish
!!!OPR: Msza No 8
!!!OTL: Credo
!!!OMV: 003
!!!PDT:
!!!AGN: Sacred; Mass
!!!SMS-siglum: PL-Wtm
!!!SMS-shelfmark: R 1549
!!!SMS-shelfwork: 001-003 M
!!!SMS-variant:
!!!SMS-altvar:
!!!NIFC-rismid: 1001115167
!!!URL-scan: http://repozytorium.nifc.pl/skany/pl-wtm-nut--r1549
!!!ONB-nifc: UWAGA: części Mszy: 1. Kyrie, 2. Gloria, 3. Credo, 4. Sanctus, 5. Benedictus Terzetto,
!!!OMD: Maestoso.
!!!key:
**kern	**dynam	**kern	**dynam	**kern	**dynam	**kern	**dynam	**kern	**text	**dynam	**kern	**text	**kern	**text	**dynam
*part7	*part7	*part6	*part6	*part5	*part5	*part4	*part4	*part3	*part3	*part3	*part2	*part2	*part1	*part1	*part1
*staff7	*	*staff6	*	*staff5	*	*staff4	*	*staff3	*staff3	*	*staff2	*staff2	*staff1	*staff1	*
*group2	*	*group2	*	*group2	*	*group2	*	*group1	*	*	*group1	*	*group1	*	*
*[A,B,B1,B,B1,B,B2,C,D,D,E]	*[A,B,B1,B,B1,B,B2,C,D,D,E]	*[A,B,B1,B,B1,B,B2,C,D,D,E]	*[A,B,B1,B,B1,B,B2,C,D,D,E]	*[A,B,B1,B,B1,B,B2,C,D,D,E]	*[A,B,B1,B,B1,B,B2,C,D,D,E]	*[A,B,B1,B,B1,B,B2,C,D,D,E]	*[A,B,B1,B,B1,B,B2,C,D,D,E]	*[A,B,B1,B,B1,B,B2,C,D,D,E]	*[A,B,B1,B,B1,B,B2,C,D,D,E]	*[A,B,B1,B,B1,B,B2,C,D,D,E]	*[A,B,B1,B,B1,B,B2,C,D,D,E]	*[A,B,B1,B,B1,B,B2,C,D,D,E]	*[A,B,B1,B,B1,B,B2,C,D,D,E]	*[A,B,B1,B,B1,B,B2,C,D,D,E]	*[A,B,B1,B,B1,B,B2,C,D,D,E]
*>A	*>A	*>A	*>A	*>A	*>A	*>A	*>A	*>A	*>A	*>A	*>A	*>A	*>A	*>A	*>A
*Iempty	*	*Iviola	*	*Iempty	*	*Iempty	*	*Iempty	*	*	*Iempty	*	*Iempty	*	*
*I"Basſo	*	*I"Viole	*	*I""Violini	*	*I""Violini	*	*I""Voce	*	*	*I""Voce	*	*I""Voce	*	*
*clefF4	*	*clefC3	*	*clefG2	*	*clefG2	*	*clefG2	*	*	*clefG2	*	*clefG2	*	*
*k[b-e-]	*	*k[b-e-]	*	*k[b-e-]	*	*k[b-e-]	*	*k[b-e-]	*	*	*k[b-e-]	*	*k[b-e-]	*	*
*g:	*	*g:	*	*g:	*	*g:	*	*g:	*	*	*g:	*	*g:	*	*
*M2/2	*	*M2/2	*	*M2/2	*	*M2/2	*	*M2/2	*	*	*M2/2	*	*M2/2	*	*
*met(c|)	*	*met(c|)	*	*met(c|)	*	*met(c|)	*	*met(c|)	*	*	*met(c|)	*	*met(c|)	*	*
*all\right	*	*all\right	*	*all\right	*	*all\right	*	*all\right	*	*	*all\right	*	*all\right	*	*
!	!	!	!LO:DY:rj	!	!	!	!LO:DY:b	!	!	!	!	!	!	!	!
4GG/	.	4g\	f	4g/	f	4g/	f	4ryy	.	.	4ryy	.	4r	.	.
=1	=1	=1	=1	=1	=1	=1	=1	=1	=1	=1	=1	=1	=1	=1	=1
*2\right	*	*2\right	*	*	*	*	*	*	*	*	*	*	*	*	*
2G\	.	2g\	.	2g^/	.	2g^/	.	1ryy	.	.	1ryy	.	1r	.	.
*	*	*	*	*	*	*2\right	*	*	*	*	*	*	*	*	*
2E-\	.	2e-\	.	2g^/	.	2gg 2cc^<\	.	.	.	.	.	.	.	.	.
=2	=2	=2	=2	=2	=2	=2	=2	=2	=2	=2	=2	=2	=2	=2	=2
2.D\	.	2.d\	.	2.a^/	.	2.ff#X 2.dd^\	.	1ryy	.	.	1ryy	.	1r	.	.
*	*	*tremolo	*	*tremolo	*	*tremolo	*	*	*	*	*	*	*	*	*
(4D\	.	8g\L	.	8b-X/L	.	8ee-X\L	.	.	.	.	.	.	.	.	.
.	.	8g\J	.	8b-/J	.	8ee-\J	.	.	.	.	.	.	.	.	.
=3	=3	=3	=3	=3	=3	=3	=3	=3	=3	=3	=3	=3	=3	=3	=3
*tremolo	*	*	*	*	*	*	*	*	*	*	*	*	*	*	*
!LO:TX:t=P:problem=mixed beam	!	!	!	!	!	!	!	!	!	!	!	!	!	!	!
8DD/L)	.	8f#X\L	.	8a/L	.	8dd\L	.	1ryy	.	.	1ryy	.	1r	.	.
8D'\	.	8f#\J	.	8a/J	.	8dd\J	.	.	.	.	.	.	.	.	.
!LO:TX:t=...	!	!	!	!	!	!	!	!	!	!	!	!	!	!	!
8DD'/	.	8e-X\L	.	8g/L	.	8cc\L	.	.	.	.	.	.	.	.	.
8D'\J	.	8e-\J	.	8g/J	.	8cc\J	.	.	.	.	.	.	.	.	.
*rep	*	*	*	*	*	*	*	*	*	*	*	*	*	*	*
!LO:TX:t=P:problem=mixed beam	!	!	!	!	!	!	!	!	!	!	!	!	!	!	!
8DD/L	.	8d\L	.	8g/L	.	8b-\L	.	.	.	.	.	.	.	.	.
8D'\	.	8d\J	.	8g/J	.	8b-\J	.	.	.	.	.	.	.	.	.
8DD'/	.	8c\L	.	8f#X/L	.	8a\L	.	.	.	.	.	.	.	.	.
8D'\J	.	8c\J	.	8f#/J	.	8a\J	.	.	.	.	.	.	.	.	.
*Xrep	*	*Xtremolo	*	*	*	*	*	*	*	*	*	*	*	*	*
=4	=4	=4	=4	=4	=4	=4	=4	=4	=4	=4	=4	=4	=4	=4	=4
!	!	!	!	!	!	!	!LO:HP:b	!	!	!	!	!	!	!	!
8E-X\L	<	4.B-/	.	8g/L	.	[[>8g/L	<	1ryy	.	.	1ryy	.	1r	.	.
8E-\	.	.	.	8g/	.	8g/	.	.	.	.	.	.	.	.	.
8E-\	.	.	.	8g/	.	8g/	.	.	.	.	.	.	.	.	.
8E-\	.	(8A/	.	8g/J	.	8g/	.	.	.	.	.	.	.	.	.
8E-\	.	8B-/L	<	8G/L	.	8g/	.	.	.	.	.	.	.	.	.
8E-\	.	8Bn/	.	8G/	.	8g/	.	.	.	.	.	.	.	.	.
8E-\	.	8c/	.	8G/	.	8g/	.	.	.	.	.	.	.	.	.
8E-\J	.	8c#X/J)	.	8G/J	.	>8g/J	[[	.	.	.	.	.	.	.	.
*	*	*	*	*	*	*Xtremolo	*	*	*	*	*	*	*	*	*
=5	=5	=5	=5	=5	=5	=5	=5	=5	=5	=5	=5	=5	=5	=5	=5
*	*	*tremolo	*	*	*	*	*	*	*	*	*	*	*	*	*
!	!	!	!	!	!	!	!LO:HP:b	!	!	!	!	!	!	!	!
8D\L	[	8d\L	[	8A/L	.	8g/L]]	>	2.ryy	.	.	2.ryy	.	2r	.	.
8D\	>	8d\	>	8A/	.	8g|/	.	.	.	.	.	.	.	.	.
8D\	.	8d\	.	8A/	.	(8f#X/	.	.	.	.	.	.	.	.	.
8D\J	.	8d\J	.	8A/J	.	8en/J	]	.	.	.	.	.	.	.	.
*Xtremolo	*	*Xtremolo	*	*Xtremolo	*	*	*	*	*	*	*	*	*	*	*
4D;\	]	4d;\	]	4A;/	.	4f#;/)	.	.	.	.	.	.	4r;	.	.
!!LO:LB:g=original
=!|:	=!|:	=!|:	=!|:	=!|:	=!|:	=!|:	=!|:	=!|:	=!|:	=!|:	=!|:	=!|:	=!|:	=!|:	=!|:
*>B	*>B	*>B	*>B	*>B	*>B	*>B	*>B	*>B	*>B	*>B	*>B	*>B	*>B	*>B	*>B
!LO:TX:b:t=pizz	!	!	!	!	!	!	!LO:DY:rj:b	!	!	!	!	!	!	!	!
4r	.	(4d\	.	(4dd\	.	[4dd\	p	4d/	3.)_Ten	.	4dd\	2.)_Że	4dd\	1.)_Wie-	p
=6	=6	=6	=6	=6	=6	=6	=6	=6	=6	=6	=6	=6	=6	=6	=6
*	*	*	*	*	*	*	*	*	*	*	*2\right	*	*2\right	*	*
4r	.	8g\L)	.	8b-\L)	.	8dd\L]	.	2g/	śmier-	.	2b-\	nie-	2dd\	-rze-	<
.	.	(8g'\	.	(8b-'\	.	(8dd'\	.	.	.	.	.	.	.	.	.
4G\	.	8g'\	.	8b-'\	.	8dd'\	.	.	.	.	.	.	.	.	.
.	.	8g'\J	.	8b-'\J	.	8dd'\J	.	.	.	.	.	.	.	.	.
*	*	*	*	*2\right	*	*	*	*	*	*	*	*	*	*	*
*	*	*tremolo	*	*tremolo	*	*tremolo	*	*	*	*	*	*	*	*	*
!	!	!LO:TX:t=....	!	!LO:TX:t=....	!	!LO:TX:t=....	!LO:HP:b	!	!	!	!	!	!	!	!
4D\	.	8g'\L	.	(8b-'\L	.	8dd'\L	<	2g/	-cią	.	2b-\	-śmier-	2dd\	-my	.
.	.	8g'\	.	8b-'\	.	8dd'\	.	.	.	.	.	.	.	.	.
4BB-/	.	8g'\	.	8b-'\	.	8dd'\	.	.	.	.	.	.	.	.	.
.	.	8g'\J)	.	8b-'\J))	.	8dd'\J)	.	.	.	.	.	.	.	.	.
=7	=7	=7	=7	=7	=7	=7	=7	=7	=7	=7	=7	=7	=7	=7	=7
!	!	!	!	!	!	!LO:TX:t=....	!	!	!	!	!	!	!	!	!
4GG/	.	8g\L	.	8b-\L	.	(8dd'\L	.	2g/	swo-	.	2b-\	-tel-	2dd\	w_Bo-	.
.	.	8g\	.	8b-\	.	8dd'\	.	.	.	.	.	.	.	.	.
4D/	.	8g\	.	8b-\	.	8dd'\	.	.	.	.	.	.	.	.	.
.	.	8g\	.	8b-\	.	8dd'\J	.	.	.	.	.	.	.	.	.
!	!	!	!	!	!	!LO:TX:t=....	!	!	!	!	!	!	!	!	!
4BB-/	.	8g\	.	8b-\	.	8dd'\L	.	4g/	-ią	.	4b-\	-ność	4dd\	-ga	.
.	.	8g\	.	8b-\	.	8dd'\	.	.	.	.	.	.	.	.	.
4GG/	.	8g\	.	8b-\	.	8dd'\	.	4g/	ród	.	4b-\	u	4dd\	ie-	.
.	.	8g\J	.	8b-\J	.	8dd'\J)	[[	.	.	.	.	.	.	.	[[
=8	=8	=8	=8	=8	=8	=8	=8	=8	=8	=8	=8	=8	=8	=8	=8
!	!	!	!	!	!	!LO:TX:t=....	!LO:DY:b	!	!	!	!	!	!	!	!
4FF#X/	.	8f#X\L	.	8a/L	.	(8ee-'\L	sf	2f#X/	ludz-	.	2a/	Bo-	2ee-\	-dne-	>
.	.	8f#\	.	8a/	.	8ee-'\	.	.	.	.	.	.	.	.	.
!	!	!	!	!	!	!	!LO:HP:b	!	!	!	!	!	!	!	!
4r	.	8f#\	.	8a/	.	8ee-'\	>	.	.	.	.	.	.	.	.
.	.	8f#\J	.	8a/J	.	8ee-'\J	.	.	.	.	.	.	.	.	.
!	!	!	!	!	!	!LO:TX:t=..	!	!	!	!	!	!	!	!	!
4GG/	.	8g\L	.	8b-\L	.	8dd'\L	.	4g/	-ki	.	4b-/	-ga	4dd\	-go	.
.	.	8g\J	.	8b-\J	.	8dd'\J	.	.	.	.	.	.	.	.	.
!	!	!	!	!	!	!LO:TX:t=..	!	!	!	!	!	!	!	!	!
4C/	.	8e-\L	.	8a/L	.	8cc'\L	]	8.e-/L	wy-	.	4a/	nas	(8.cc\L	na	]
.	.	8e-\J	.	8a/J	.	8cc'\J)	.	.	.	.	.	.	.	.	.
.	.	.	.	.	.	.	.	16c/Jk	.	.	.	.	16a\Jk)	.	.
=9	=9	=9	=9	=9	=9	=9	=9	=9	=9	=9	=9	=9	=9	=9	=9
4D\	.	8r	.	8r	.	8r	.	(2..d/	-ba-	.	(2g/	cze-	(>2b-/	wie-	.
.	.	8d\L	.	8g/L	.	8b-\L	.	.	.	.	.	.	.	.	.
4r	.	8d\	.	8g/	.	8b-\	.	.	.	.	.	.	.	.	.
.	.	8d\J	.	8g/J	.	8b-\J	.	.	.	.	.	.	.	.	.
*	*	*Xtremolo	*	*Xtremolo	*	*Xtremolo	*	*	*	*	*	*	*	*	*
.	.	.	.	.	.	.	.	.	.	.	.	.	(8qb-/	.	.
4D\	.	8r	.	8r	.	8r	.	.	.	.	4.f#X/	.	4.a/)	.	.
.	.	8c'\L	.	8f#X'/L	.	8a'/L	.	.	.	.	.	.	.	.	.
4r	.	(8c\	.	(8f#/	.	(8a/	.	.	.	.	.	.	.	.	.
.	.	8B-\J)	.	8g/J)	.	8g/J)	.	8g/)	.	.	8g/)	.	8g/)	.	.
=10	=10	=10	=10	=10	=10	=10	=10	=10	=10	=10	=10	=10	=10	=10	=10
8G\	.	8r	.	8r	.	8r	.	2.g/	-wił	.	2.g/	-ka	2.g/	-ki,	.
8r	.	8B-/	.	8g/	.	8g/	.	.	.	.	.	.	.	.	.
*	*	*rep	*	*rep	*	*	*	*	*	*	*	*	*	*	*
8D/	.	8r	.	8r	.	8r	.	.	.	.	.	.	.	.	.
*	*	*	*	*	*	*rep	*	*	*	*	*	*	*	*	*
8r	.	8B-/	.	8g/	.	8g/	.	.	.	.	.	.	.	.	.
*	*	*Xrep	*	*Xrep	*	*Xrep	*	*	*	*	*	*	*	*	*
*	*	*rep	*	*rep	*	*rep	*	*	*	*	*	*	*	*	*
8BB-/	.	8r	.	8r	.	8r	.	.	.	.	.	.	.	.	.
8r	.	8B-/	.	8g/	.	8g/	.	.	.	.	.	.	.	.	.
*	*	*Xrep	*	*Xrep	*	*Xrep	*	*	*	*	*	*	*	*	*
8GG/	.	8r	.	8r	.	8r	.	4g/	i	.	4g/	dla	4b-/	Co	.
8r	.	8d\	.	8g/	.	8b-/	.	.	.	.	.	.	.	.	.
!!LO:PB:g=original
=11	=11	=11	=11	=11	=11	=11	=11	=11	=11	=11	=11	=11	=11	=11	=11
4FF/	.	8r	.	8r	.	8r	.	2fn/	Krwią	.	(4.a/	Któ-	(4.cc\	ka-	.
.	.	8f\L	.	8a/L	.	(8cc'\L	.	.	.	.	.	.	.	.	.
4r	.	8f\	.	8a/	.	8cc'\	.	.	.	.	.	.	.	.	.
.	.	8f\J	.	8a/J	.	8cc'\J)	.	.	.	.	16b-/LL	.	16dd\LL	.	.
.	.	.	.	.	.	.	.	.	.	.	16a/JJ	.	16cc\JJ	.	.
8F\	.	8r	.	8r	.	8r	.	2f/	do	.	4g/)	.	4b-\)	.	.
!	!	!	!	!	!	!	!LO:HP:b	!	!	!	!	!	!	!	!
8r	.	8g\	.	8g/	.	8b-\	<	.	.	.	.	.	.	.	.
!LO:TX:b:t=arco	!	!	!	!	!	!	!	!	!	!	!	!	!	!	!
8F\	.	8r	.	8r	.	8r	.	.	.	.	4a/	-rey	4cc\	-rze	.
8r	.	8f\	.	8a/	.	8cc\	[[	.	.	.	.	.	.	.	.
=12	=12	=12	=12	=12	=12	=12	=12	=12	=12	=12	=12	=12	=12	=12	=12
!	!	!	!	!	!	!	!LO:DY:b	!	!	!	!	!	!	!	!
4En\	.	8r	.	8r	.	8r	sf	2en^>/	nie-	.	2b-/	czy-	2dd-X^\	zbro-	.
!	!	!	!	!	!	!	!LO:HP:b	!	!	!	!	!	!	!	!
.	.	8g\L	.	8b-\L	.	(8dd-X'\L	>	.	.	.	.	.	.	.	.
4r	.	8g\	.	8b-\	.	8dd-'\	.	.	.	.	.	.	.	.	.
.	.	8g\J	.	8b-\J	.	8dd-'\J)	.	.	.	.	.	.	.	.	.
8F\	.	8r	.	8r	.	8r	]	4f/	-ba	.	4a/	-niem	4cc\	-dnie	.
8r	.	8f\	.	8a\	.	8cc\	.	.	.	.	.	.	.	.	.
8E-X\	.	8r	.	8r	.	8r	.	4e-X/	o-	.	4a/	na	4cc\	a	.
8r	.	8f\	.	8a/	.	8cc\	.	.	.	.	.	.	.	.	.
=13	=13	=13	=13	=13	=13	=13	=13	=13	=13	=13	=13	=13	=13	=13	=13
!	!LO:DY:rj	!	!	!	!	!	!	!	!	!	!	!	!	!	!
4D\	f	8r	.	8r	.	8r	.	2d/	-zna-	.	2b-/	zie-	2ff\	cno-	.
*	*	*tremolo	*	*tremolo	*	*tremolo	*	*	*	*	*	*	*	*	*
!	!	!	!	!	!	!LO:TX:t=P:problem=łuk i trzy kropki nad nutą	!LO:DY:rj:b	!	!	!	!	!	!	!	!
.	.	8f\L	.	8b-\L	.	(8ff'\L	f	.	.	.	.	.	.	.	.
4r	.	8f\	.	8b-\	.	8ff'\	.	.	.	.	.	.	.	.	.
.	.	8f\J	.	8b-\J	.	8ff'\J)	.	.	.	.	.	.	.	.	.
*	*	*Xtremolo	*	*Xtremolo	*	*Xtremolo	*	*	*	*	*	*	*	*	*
8E-\	.	8r	.	8r	.	8r	.	4e-X/	-czył	.	4g/	-mi	4ff\	-ty	.
8r	.	8g\	.	8b-\	.	8ff\	.	.	.	.	.	.	.	.	.
8E-\	.	8r	.	8r	.	8r	.	4e-/	nam	.	4g/	o-	4ee-\	na-	.
8r	.	8g\	.	8cc\	.	8ee-\	.	.	.	.	.	.	.	.	.
=14	=14	=14	=14	=14	=14	=14	=14	=14	=14	=14	=14	=14	=14	=14	=14
!	!	!	!	!	!	!	!LO:HP:b	!	!	!	!	!	!	!	!
4F\	.	8r	.	8r	.	8r	>	(2..f/	śla-	.	(2b-/	fia-	2dd\	-gra-	.
.	.	8f\L	.	8b-\L	.	(8dd'\L	.	.	.	.	.	.	.	.	.
4r	.	8f\	.	8b-\	.	8dd'\	.	.	.	.	.	.	.	.	.
.	.	8f\J	.	8b-\J	.	8dd'\J)	.	.	.	.	.	.	.	.	.
.	.	.	.	.	.	.	]	.	.	.	.	.	(8qdd/	.	.
!	!	!	!	!	!	!	!LO:DY:b	!	!	!	!	!	!	!	!
4FF/	.	8r	.	8r	.	8r	p	.	.	.	4.a/	.	(4.cc\)	.	.
.	.	8e-'\L	.	8a'/L	.	8cc'\L	.	.	.	.	.	.	.	.	.
4r	.	(8e-\	.	(8a/	.	(8cc\	.	.	.	.	.	.	.	.	.
.	.	8d\J)	.	8b-/J)	.	8b-\J)	.	8B-/)	.	.	8b-/)	.	8b-\)	.	.
=15	=15	=15	=15	=15	=15	=15	=15	=15	=15	=15	=15	=15	=15	=15	=15
4BB-/	.	8r	.	8r	.	8r	.	2B-/	-dy	.	2b-/	-ry	2b-\	-dza	.
.	.	8d\L	.	8f/L	.	8b-\L	.	.	.	.	.	.	.	.	.
4B-\	.	8d\	.	8f/	.	8b-\	.	.	.	.	.	.	.	.	.
.	.	8d\J	.	8f/J	.	8b-\J	.	.	.	.	.	.	.	.	.
*	*	*	*	*tremolo	*	*tremolo	*	*	*	*	*	*	*	*	*
!	!	!	!	!	!	!	!LO:DY:rj:b	!	!	!	!	!	!	!	!LO:DY:rj
2r	.	2r	.	8b-\L	.	8dd\L	f	2r	.	.	2b-/	Że	2dd\	świat	f
.	.	.	.	8b-\	.	8dd\	.	.	.	.	.	.	.	.	.
.	.	.	.	8b-\	.	8dd\	.	.	.	.	.	.	.	.	.
.	.	.	.	8b-\J	.	8dd\J	.	.	.	.	.	.	.	.	.
!!LO:LB:g=original
=16	=16	=16	=16	=16	=16	=16	=16	=16	=16	=16	=16	=16	=16	=16	=16
!	!LO:DY:a	!	!	!	!	!	!	!	!	!	!	!	!	!	!
4r	f	4r	.	8b-\L	.	8dd\L	.	4r	.	.	2b-/	sy-	2dd\	ca-	.
.	.	.	.	8b-\	.	8dd\	.	.	.	.	.	.	.	.	.
4G\	.	4G'/	.	8b-\	.	8dd\	.	4G/	A	.	.	.	.	.	.
.	.	.	.	8b-\J	.	8dd\J	.	.	.	.	.	.	.	.	.
4B-\	.	4B-'/	.	8g/L	.	8gg\L	.	4B-/	po	.	(4g/	-na	2gg\	-ły	.
.	.	.	.	8g/J	.	8gg\	.	.	.	.	.	.	.	.	.
4G\	.	4G'/	.	8b-\L	.	8gg\	.	4G/	bo-	.	4b-/)	.	.	.	.
.	.	.	.	8b-\J	.	8gg\J	.	.	.	.	.	.	.	.	.
=17	=17	=17	=17	=17	=17	=17	=17	=17	=17	=17	=17	=17	=17	=17	=17
4D\	.	4D/	.	8a/L	.	8gg\L	.	2d/	-że-	.	2a/	Swe-	2gg\	z_Je-	.
.	.	.	.	8a/	.	8gg\	.	.	.	.	.	.	.	.	.
4d\	.	4d\	.	8a/	.	8gg\	.	.	.	.	.	.	.	.	.
.	.	.	.	8a/	.	8gg\J	.	.	.	.	.	.	.	.	.
4D\	.	4D/	.	8a/	.	8ff#X\L	.	4d/	-mu	.	4a/	-go	4ff#X\	-go	.
.	.	.	.	8a/J	.	8ff#\J	.	.	.	.	.	.	.	.	.
*	*	*tremolo	*	*	*	*	*	*	*	*	*	*	*	*	*
4d\	.	8g\L	.	8b-X/L	.	8ee-X\L	.	4g/	na	.	4b-X/	chciał	4ee-X\	i-	.
.	.	8g\J	.	8b-/J	.	8ee-\J	.	.	.	.	.	.	.	.	.
=18	=18	=18	=18	=18	=18	=18	=18	=18	=18	=18	=18	=18	=18	=18	=18
4D\	.	8f#X\L	.	8a/L	.	8dd\L	.	2f#X/	wie-	.	2a/	wcie-	(4dd\	-stnie-	.
.	.	8f#\J	.	8a/	.	8dd\J	.	.	.	.	.	.	.	.	.
4F#X\	.	8d\L	.	8a/	.	8cc\L	.	.	.	.	.	.	4cc\)	.	.
.	.	8d\J	.	8a/J	.	8cc\J	.	.	.	.	.	.	.	.	.
4G\	.	8d\L	.	8g/L	.	8b-\L	.	4g/	-ki	.	4g/	-lić	4b-\	-ie	.
*	*	*	*	*Xtremolo	*	*	*	*	*	*	*	*	*	*	*
.	.	8d\J	.	8g/	.	8b-\J	.	.	.	.	.	.	.	.	.
4E-X\	.	8e-X\L	.	8g/	.	8cc\L	.	4e-X/	zo-	.	4g/	w_czło-	4cc\	o-	.
.	.	8e-\J	.	8g/J	.	8cc\J	.	.	.	.	.	.	.	.	.
=19	=19	=19	=19	=19	=19	=19	=19	=19	=19	=19	=19	=19	=19	=19	=19
4D\	.	8d\L	.	8aL 8g'/	.	8dd\L	.	2d/	-sta-	.	(4g/	-wie-	2dd\	-pie-	.
.	.	8d\	.	(8a 8g/	.	8dd\	.	.	.	.	.	.	.	.	.
4d\	.	8d\	.	8a 8f#X/	.	8dd\	.	.	.	.	8f#X/L	.	.	.	.
.	.	8d\	.	8aJ 8en/)	.	8dd\J	.	.	.	.	8en/J)	.	.	.	.
*	*	*	*	*tremolo	*	*	*	*	*	*	*	*	*	*	*
4D\	.	8d\	.	8aL 8f#/	.	8dd\L	.	4d/	-wił	.	4f#/	-ka	4dd\	-ki	.
.	.	8d\	.	8a 8f#/	.	8dd\	.	.	.	.	.	.	.	.	.
4d\	.	8d\	.	8a 8f#/	.	8dd\	.	4d/	Na-	.	4f#/	Co	4dd\	w_mi-	.
.	.	8d\J	.	8aJ 8f#/	.	8dd\J	.	.	.	.	.	.	.	.	.
=20	=20	=20	=20	=20	=20	=20	=20	=20	=20	=20	=20	=20	=20	=20	=20
4C\	.	8c\L	.	8aL 8f#X/	.	8ee-^<\L	.	2c/	-u-	.	2f#X/	nas	2ee-^\	-ło-	.
.	.	8c\	.	8a 8f#/	.	8ee-\	.	.	.	.	.	.	.	.	.
4c\	.	8c\	.	8a 8f#/	.	8ee-\	.	.	.	.	.	.	.	.	.
.	.	8c\J	.	8aJ 8f#/	.	8ee-\J	.	.	.	.	.	.	.	.	.
4BB-X/	.	8B-X/L	.	8g/L	.	8dd\L	.	2B-/	-ki	.	2g/	na-	2dd\	-ści	.
.	.	8B-/	.	8g/	.	8dd\	.	.	.	.	.	.	.	.	.
4B-X\	.	8B-/	.	8g/	.	8dd\	.	.	.	.	.	.	.	.	.
.	.	8B-/J	.	8g/J	.	8dd\J	.	.	.	.	.	.	.	.	.
*	*	*	*	*	*	*Xtremolo	*	*	*	*	*	*	*	*	*
=21	=21	=21	=21	=21	=21	=21	=21	=21	=21	=21	=21	=21	=21	=21	=21
4AA/	.	8d\L	.	8f#X/L	.	8dd'\L	.	2A/	świę-	.	2f#X/	-u-	(4.dd\	Je-	.
.	.	8d\	.	8f#/	.	8dd'\	.	.	.	.	.	.	.	.	.
4A\	.	8d\	.	8f#/	.	(8dd\	.	.	.	.	.	.	.	.	.
.	.	8d\J	.	8f#/J	.	8cc\J)	.	.	.	.	.	.	8cc\)	.	.
*	*	*Xtremolo	*	*Xtremolo	*	*	*	*	*	*	*	*	*	*	*
4GG/	.	8d\L	.	8g/L	.	8b-\L	.	4G/	-te	.	4g/	-czył	4b-\	-go	.
.	.	8d\J	.	8g/J	.	8b-\J	.	.	.	.	.	.	.	.	.
!	!LO:DY:rj	!	!	!	!	!	!LO:DY:a	!	!	!	!	!	!	!	!LO:DY:rj
8C/	p	8r	.	8r	.	8r	p	4c/	i	.	4e-X/	mi-	4a/	i	p
8r	.	8c\	.	8e-X/	.	8a\	.	.	.	.	.	.	.	.	.
!!LO:PB:g=original
=22	=22	=22	=22	=22	=22	=22	=22	=22	=22	=22	=22	=22	=22	=22	=22
4D\	.	8r	.	8r	.	8r	.	2d/	.	.	2g/	-ło-	2b-\	.	.
*	*	*tremolo	*	*tremolo	*	*tremolo	*	*	*	*	*	*	*	*	*
.	.	8d\L	.	8g/L	.	8b-\L	.	.	.	.	.	.	.	.	.
4r	.	8d\	.	8g/	.	8b-\	.	.	.	.	.	.	.	.	.
.	.	8d\J	.	8g/J	.	8b-\J	.	.	.	.	.	.	.	.	.
*	*	*Xtremolo	*	*Xtremolo	*	*Xtremolo	*	*	*	*	*	*	*	*	*
8D\	.	8r	.	8r	.	8r	.	4d/	.	.	4g/	-ści	4a\	.	.
8r	.	8d\	.	8g/	.	8a\	.	.	.	.	.	.	.	.	.
!	!	!	!	!	!	!	!	!	!	!LO:DY:rj	!	!	!	!	!LO:DY:rj
8D\	sf	8r	.	8r	.	8r	.	4d/	.	f	4f#X/	i	4dd\	.	f
!	!	!	!	!	!	!	!LO:DY:b	!	!	!	!	!	!	!	!
8r	.	8d\	sf	8f#X/	.	8dd\	sf	.	.	.	.	.	.	.	.
=23	=23	=23	=23	=23	=23	=23	=23	=23	=23	=23	=23	=23	=23	=23	=23
!	!LO:DY:rj	!	!	!	!	!	!LO:DY:b	!	!	!	!	!	!	!	!
8G\	f	8r	.	8r	.	8r	f	2g/	.	.	2g/	wia-	2g/	.	.
!	!	!	!LO:DY:rj	!	!	!	!	!	!	!	!	!	!	!	!
8G'\L	.	8g'\L	f	8g'/L	.	8g'/L	.	.	.	.	.	.	.	.	.
(8D\	.	(8d\	.	(8d/	.	(8dd/	.	.	.	.	.	.	.	.	.
8BB-\J)	.	8B-\J)	.	8b-/J)	.	8b-/J)	.	.	.	.	.	.	.	.	.
4GG/	.	4G/	.	4g/	.	4g/	.	4g/	.	.	4g/	-ry.	4g/	.	.
*	*	*	*	*	*	*Xtuplet	*	*	*	*	*	*	*	*	*
!	!	!LO:TX:t=P:problem=diminuendolikeaccent	!LO:DY:rj	!LO:TX:t=P:problem=diminuendolikeaccent	!	!LO:TUP:a:problem=klamra łukowa, łuczek zamiast numeru	!LO:DY:rj:b	!	!	!	!	!	!	!	!
!	!	!	!	!	!	!LO:TX:t=P:problem=diminuendolikeaccent	!	!	!	!	!	!	!	!	!
4r	.	(4b-X^<\	p	(4dd^<\	.	12gg^<\L	p	4r	.	.	4r	.	4r	.	.
.	.	.	.	.	.	12aa\	.	.	.	.	.	.	.	.	.
.	.	.	.	.	.	12gg\J	.	.	.	.	.	.	.	.	.
=24	=24	=24	=24	=24	=24	=24	=24	=24	=24	=24	=24	=24	=24	=24	=24
1r	.	8a\)	.	8cc\)	.	8ff#X\	.	1r	.	.	1r	.	1r	.	.
.	.	8r	.	8r	.	8r	.	.	.	.	.	.	.	.	.
!	!	!	!	!	!	!LO:TUP:a:problem=klamra łukowa, łuczek zamiast numeru	!	!	!	!	!	!	!	!	!
!	!	!LO:TX:t=P:problem=diminuendolikeaccent	!	!	!	!LO:TX:t=P:problem=diminuendolikeaccent	!	!	!	!	!	!	!	!	!
.	.	(4g^\	.	(4b-/	.	12ee-X^<\L	.	.	.	.	.	.	.	.	.
.	.	.	.	.	.	12ffn\	.	.	.	.	.	.	.	.	.
.	.	.	.	.	.	12ee-\J	.	.	.	.	.	.	.	.	.
.	.	8f#X\)	.	8a/)	.	8dd\	.	.	.	.	.	.	.	.	.
.	.	8r	.	8r	.	8r	.	.	.	.	.	.	.	.	.
!	!	!	!	!	!	!LO:TUP:a:problem=klamra łukowa, łuczek zamiast numeru	!	!	!	!	!	!	!	!	!
!	!	!	!	!LO:TX:t=P:problem=diminuendolikeaccent	!	!LO:TX:t=P:problem=diminuendolikeaccent	!	!	!	!	!	!	!	!	!
.	.	(4e-X^<\	.	(4g^/	.	12cc^<\L	.	.	.	.	.	.	.	.	.
.	.	.	.	.	.	12dd\	.	.	.	.	.	.	.	.	.
.	.	.	.	.	.	12cc\J	.	.	.	.	.	.	.	.	.
=25	=25	=25	=25	=25	=25	=25	=25	=25	=25	=25	=25	=25	=25	=25	=25
2r	.	(2d\)	.	2g/	.	(2b-\	.	1r	.	.	1r	.	1r	.	.
2D\	.	2c\)	.	2f#X/)	.	4.b-\	.	.	.	.	.	.	.	.	.
.	.	.	.	.	.	8a\)	.	.	.	.	.	.	.	.	.
!!LO:LB:g=original
=26	=26	=26	=26	=26	=26	=26	=26	=26	=26	=26	=26	=26	=26	=26	=26
!LO:TX:t=1. 2.	!	!	!	!	!	!	!	!	!	!	!	!	!	!	!
*>B1	*>B1	*>B1	*>B1	*>B1	*>B1	*>B1	*>B1	*>B1	*>B1	*>B1	*>B1	*>B1	*>B1	*>B1	*>B1
*	*	*	*	*tremolo	*	*tremolo	*	*	*	*	*	*	*	*	*
!	!	!	!	!	!	!	!LO:HP:b	!	!	!	!	!	!	!	!
8E-X\L	<	(4.B-/	.	8g/L	.	[[>8g/L	<	1ryy	.	.	1ryy	.	1r	.	.
8E-\	.	.	.	8g/	.	8g/	.	.	.	.	.	.	.	.	.
8E-\	.	.	.	8g/	.	8g/	.	.	.	.	.	.	.	.	.
8E-\	.	8A/	.	8g/J	.	8g/	.	.	.	.	.	.	.	.	.
8E-\	.	8B-/L	.	8G/L	.	8g/	.	.	.	.	.	.	.	.	.
8E-\	.	8Bn/	.	8G/	.	8g/	.	.	.	.	.	.	.	.	.
8E-\	.	8c/	.	8G/	.	8g/	.	.	.	.	.	.	.	.	.
8E-\J	[	8c#X/J)	.	8G/J	.	8g/J	[	.	.	.	.	.	.	.	.
*	*	*	*	*	*	*Xtremolo	*	*	*	*	*	*	*	*	*
=27	=27	=27	=27	=27	=27	=27	=27	=27	=27	=27	=27	=27	=27	=27	=27
!	!LO:DY:rj	!	!LO:DY:rj	!	!LO:DY:rj	!	!LO:DY:rj:b	!	!	!	!	!	!	!	!
*tremolo	*	*tremolo	*	*	*	*	*	*	*	*	*	*	*	*	*
8D\L	sf	8d\L	f	8A/L	f	8g/L]]	f	2ryy	.	.	2ryy	.	2r	.	.
8D\	.	8d\	.	8A/	.	8g|/	.	.	.	.	.	.	.	.	.
8D\	.	8d\	.	8A/	.	(8f#X/	.	.	.	.	.	.	.	.	.
8D\J	.	8d\J	.	8A/J	.	8en/J)	.	.	.	.	.	.	.	.	.
*	*	*Xtremolo	*	*Xtremolo	*	*	*	*	*	*	*	*	*	*	*
4D;\	.	4d;\	.	4A;/	.	4f#;/	.	4ryy	.	.	4ryy	.	4r;	.	.
=28:|!	=28:|!	=28:|!	=28:|!	=28:|!	=28:|!	=28:|!	=28:|!	=28:|!	=28:|!	=28:|!	=28:|!	=28:|!	=28:|!	=28:|!	=28:|!
!LO:TX:t=3	!	!	!	!	!	!	!	!	!	!	!	!	!	!	!
*>B2	*>B2	*>B2	*>B2	*>B2	*>B2	*>B2	*>B2	*>B2	*>B2	*>B2	*>B2	*>B2	*>B2	*>B2	*>B2
!	!	!	!	!LO:TX:a:t=Unis	!	!	!	!LO:TX:t=P:problem=brak taktów nr 30-31	!	!	!LO:TX:t=P:problem=brak taktów nr 30-31	!	!LO:TX:t=P:problem=brak taktów nr 30-31	!	!
4GG'/	.	4B-/	.	4g/yy	.	4g/	.	1ryy	.	.	1ryy	.	1ryy	.	.
(4E-\	.	(4e-\	.	(y4e-/yy	.	(4e-/	.	.	.	.	.	.	.	.	.
4D\)	.	4d\)	.	4d/)yy	.	4d/)	.	.	.	.	.	.	.	.	.
4BB-'/	.	4B-'\	.	4B-'/yy	.	4B-'/	.	.	.	.	.	.	.	.	.
=29	=29	=29	=29	=29	=29	=29	=29	=29	=29	=29	=29	=29	=29	=29	=29
1GG	.	1G	.	1Gyy	.	1G	.	1ryy	.	.	1ryy	.	1ryy	.	.
!!LO:PB:g=original
=30||	=30||	=30||	=30||	=30||	=30||	=30||	=30||	=30||	=30||	=30||	=30||	=30||	=30||	=30||	=30||
*>C	*>C	*>C	*>C	*>C	*>C	*>C	*>C	*>C	*>C	*>C	*>C	*>C	*>C	*>C	*>C
!!!OMD: Andantino
*M3/4	*	*M3/4	*	*M3/4	*	*M3/4	*	*M3/4	*	*	*M3/4	*	*M3/4	*	*
!	!	!	!	!	!	!	!LO:DY:rj	!	!	!	!	!	!	!	!
2.r	.	2.r	.	2.r	.	(8f/L	p	2.r	.	.	2.r	.	2.r	.	.
.	.	.	.	.	.	8g/	.	.	.	.	.	.	.	.	.
!	!	!	!	!	!	!LO:TX:a:t=dolce	!	!	!	!	!	!	!	!	!
.	.	.	.	.	.	8a/	.	.	.	.	.	.	.	.	.
.	.	.	.	.	.	8b-/	.	.	.	.	.	.	.	.	.
.	.	.	.	.	.	8cc/	.	.	.	.	.	.	.	.	.
.	.	.	.	.	p	8cc#X/J)	.	.	.	.	.	.	.	.	.
=31!|:	=31!|:	=31!|:	=31!|:	=31!|:	=31!|:	=31!|:	=31!|:	=31!|:	=31!|:	=31!|:	=31!|:	=31!|:	=31!|:	=31!|:	=31!|:
*>D	*>D	*>D	*>D	*>D	*>D	*>D	*>D	*>D	*>D	*>D	*>D	*>D	*>D	*>D	*>D
*^	*	*	*	*	*	*	*	*	*	*	*	*	*	*	*
!	!	!	!	!	!	!	!	!	!	!	!	!	!	!LO:TX:a:t=dolce	!	!
[2.B-/	2.r	.	[2.B-/	.	(2f/	.	(2dd\	.	2B-/	.	.	2f/	2.)_Kę-	2dd\	1.)_Przyi-	.
*	*	*	*	*	*Xtuplet	*	*	*	*	*	*	*Xtuplet	*	*Xtuplet	*	*
!	!	!	!	!	!LO:TUP:b:problem=klamra łukowa, łuczek zamiast numeru	!	!LO:TUP:a:problem=klamra łukowa, łuczek zamiast numeru	!	!	!	!	!LO:TUP:b:problem=klamra łukowa, łuczek zamiast numeru	!	!LO:TUP:a:problem=klamra łukowa, kreska zamiast numeru	!	!
.	.	.	.	.	12e-/L	.	12cc\L	.	4B-/	.	.	12e-/L	-dy	12cc\L	-mij	.
.	.	.	.	.	12f/	.	12dd\	.	.	.	.	12f/	.	12dd\	.	.
.	.	.	.	.	12e-/J	.	12cc\J	.	.	.	.	12e-/J	.	12cc\J	.	.
=32	=32	=32	=32	=32	=32	=32	=32	=32	=32	=32	=32	=32	=32	=32	=32	=32
2B-/]	2.r	.	2B-/]	.	2d/)	.	(4b-/	.	2B-/	.	.	2d/	Two-	(4b-/	Bo-	.
.	.	.	.	.	.	.	4f/))	.	.	.	.	.	.	4f/)	.	.
(4A/	.	.	4A/	.	4f|/	.	4cc'\	.	4A/	.	.	4f/	-je	4cc\	-że	.
=33	=33	=33	=33	=33	=33	=33	=33	=33	=33	=33	=33	=33	=33	=33	=33	=33
4B-/	2.r	.	(4B-\	.	(2b-\	.	(2dd\	.	(4B-/	.	.	2b-/	słoń-	2dd\	tę	.
4g/	.	.	4g\	.	.	.	.	.	4g/)	.	.	.	.	.	.	.
4e-/	.	.	4e- 4c\)	.	4g/	.	8ff\L	.	4c/	.	.	4g/	-ce	(8ff\L	o-	.
.	.	.	.	.	.	.	8ee-\J)	.	.	.	.	.	.	8ee-\J)	.	.
=34	=34	=34	=34	=34	=34	=34	=34	=34	=34	=34	=34	=34	=34	=34	=34	=34
2f/)	2.r	.	2.f\	.	(2b-\)	.	(2dd\	.	2f/	.	.	2b-/	świe-	2dd\	-fia-	.
4F/	.	.	.	.	4a\)	.	4cc\)	.	4f/	.	.	4a/	-ci	4cc\	-rę	.
.	.	p	.	.	.	.	.	.	.	.	.	.	.	.	.	.
*v	*v	*	*	*	*	*	*	*	*	*	*	*	*	*	*	*
=35	=35	=35	=35	=35	=35	=35	=35	=35	=35	=35	=35	=35	=35	=35	=35
4G\	.	4g\	.	8r	.	8r	.	2g/	.	.	2g/	Tam	2b-\	Któ-	.
.	.	.	.	(8g'/L	.	(8b-'\L	.	.	.	.	.	.	.	.	.
4r	.	4r	.	8g'/	.	8b-'\	.	.	.	.	.	.	.	.	.
.	.	.	.	8g'/J)	.	8b-'\J)	.	.	.	.	.	.	.	.	.
4E-\	sf	4e-\	.	8r	.	8r	.	4e-/	.	.	4g/	gdzie	4cc\	-rą	.
!	!	!	!	!	!	!	!LO:DY:b	!	!	!	!	!	!	!	!
.	.	.	.	8g/	sf	8cc|\	sf	.	.	.	.	.	.	.	.
!!LO:LB:g=original
=36	=36	=36	=36	=36	=36	=36	=36	=36	=36	=36	=36	=36	=36	=36	=36
4F\	.	4f\	.	8r	.	8r	.	2f/	.	.	(4.f/	ludz-	(4.a\	za	.
.	.	.	.	8f'/L	.	8a|/L	.	.	.	.	.	.	.	.	.
!	!	!	!	!	!	!	!LO:DY:a	!	!	!	!	!	!	!	!
4r	.	4r	.	(8f/	.	(8a/	<	.	.	.	.	.	.	.	.
.	.	.	.	8g/	.	8b-/	.	.	.	.	8g/)	.	8b-\)	.	<
4r	.	4r	.	8a/	.	8cc/	.	4f/	.	.	(8a/L	-kie	(8cc\L	nas	.
.	.	.	.	8b-/J)	.	8dd/J)	[[	.	.	.	8b-/J)	.	8dd\J)	.	[[
=37	=37	=37	=37	=37	=37	=37	=37	=37	=37	=37	=37	=37	=37	=37	=37
4F\	.	4f\	.	8r	.	8r	.	2f/	.	.	(4.cc\	ser-	(4.ee-\	Ka-	>
.	.	.	.	8cc'\L	.	8ee-'\L	.	.	.	.	.	.	.	.	.
4r	.	4r	.	(8cc\	.	(8ee-\	.	.	.	.	.	.	.	.	.
.	.	.	.	8a\J)	.	8cc\J)	.	.	.	.	8a\)	.	8cc\)	.	]
(8D\L	.	(8d/L	.	(8b-\L	.	(8dd\L	.	(8d/L	.	.	(8b-\L	-ca	(8dd\L	-płan	.
8BB-\J)	.	8B-/J)	.	8dd\J)	.	8ff\J)	.	8B-/J)	.	.	8dd\J)	.	8ff\J)	.	.
=38	=38	=38	=38	=38	=38	=38	=38	=38	=38	=38	=38	=38	=38	=38	=38
8F\	.	8f\	.	8r	.	8r	.	4f/	.	.	4b-\	bi-	4dd\	świę-	.
8r	.	8r	.	8b-\	.	8dd|\	.	.	.	.	.	.	.	.	.
!	!	!	!	!	!	!	!LO:HP:b	!	!	!	!	!	!	!	!
8FF/	.	8F/	.	8r	.	8r	<	2f/	.	.	2a/	-ią	(4cc\	ci	.
8r	.	8r	.	8a\	.	8cc|\	.	.	.	.	.	.	.	.	.
8F\	.	8f\	.	8r	.	8r	.	.	.	.	.	.	4cc#X\	.	.
8r	.	8r	.	8a\	.	8cc#X|\	[[	.	.	.	.	.	.	.	.
=39	=39	=39	=39	=39	=39	=39	=39	=39	=39	=39	=39	=39	=39	=39	=39
!	!LO:DY:rj	!	!LO:DY:rj	!	!	!	!LO:DY:rj:b	!	!	!	!	!	!	!	!
[2.BB-/	p	[2.B-/	p	(4b-\	.	([4dd\	p	2B-/	.	.	(4b-\	Niech	([4dd\)	Wzma-	.
!	!	!	!	!LO:TUP:a:problem=łuczek zamiast numeru	!	!	!	!	!	!	!LO:TUP:a:problem=łuczek zamiast numeru	!	!	!	!
.	.	.	.	12b-\L	.	12dd\L]	.	.	.	.	12b-\L	.	12dd\L]	.	.
.	.	.	.	12a\	.	12cc\	.	.	.	.	12a\	[[Cię]]	12cc\	.	.
.	.	.	.	12cc\J	.	12dd\J	.	.	.	.	12b-\J	.	12dd\J	.	.
!	!	!	!	!LO:TUP:b:problem=łuczek zamiast numeru	!	!	!	!	!	!	!LO:TUP:b:problem=łuczek zamiast numeru	!	!	!	!
.	.	.	.	6g/	.	12ff\L	.	4B-/	.	.	6g/)	.	12ff\L	-cniay	.
.	.	.	.	.	.	12ee-\	.	.	.	.	.	.	12ee-\	.	.
.	.	.	.	(>12a/)	.	12cc\J)	.	.	.	.	12a/	Cię	12cc|\J)	.	.
=40	=40	=40	=40	=40	=40	=40	=40	=40	=40	=40	=40	=40	=40	=40	=40
2BB-/]	.	2B-/]	.	4b-/	.	(4dd\	.	2B-/	.	.	(4b-/	zna-	(4dd\	wie-	.
.	.	.	.	4d/)	.	4b-\)	.	.	.	.	4d/)	.	4b-\)	.	.
4AA/	.	4A/	.	4f'/	.	4cc|\	.	4B-/	.	.	4f/	-ią	4cc\	-cznie	.
!!LO:PB:g=original
=41	=41	=41	=41	=41	=41	=41	=41	=41	=41	=41	=41	=41	=41	=41	=41
8BB-/	.	8B-/	.	8r	.	8r	.	(4B-/	.	.	2b-/	Two-	([4dd\	na-	.
8r	.	8r	.	8b-\	.	8dd\	.	.	.	.	.	.	.	.	.
8G\	.	8g\	.	8r	.	8r	.	4g/)	.	.	.	.	8dd\L]	.	.
8r	.	8r	.	8b-\	.	8dd\	.	.	.	.	.	.	32ee-\LL	.	.
.	.	.	.	.	.	.	.	.	.	.	.	.	32dd\	.	.
.	.	.	.	.	.	.	.	.	.	.	.	.	32cc\	.	.
.	.	.	.	.	.	.	.	.	.	.	.	.	32dd\JJJ)	.	.
4E-\	sf	4e-\	sf	4g/	sf	(8.ff\L	.	4c/	.	.	4g/	-je	8.ff\	.	.
.	.	.	.	.	.	16ee-\Jk)	.	.	.	.	.	.	16ee-\	-szą	.
=42	=42	=42	=42	=42	=42	=42	=42	=42	=42	=42	=42	=42	=42	=42	=42
8F\	.	8f\L	.	8r	.	8r	.	2f/	.	.	4b-/	dzie-	4dd\	wia-	.
8r	.	8f\J	.	8b-\	.	8dd\	.	.	.	.	.	.	.	.	.
!	!	!	!	!	!	!	!LO:HP:b	!	!	!	!	!	!	!	!
8F\	.	8r	.	8r	.	8r	<	.	.	.	4a/	-ci	4cc\	-rę	.
8r	.	8f\	.	8a\	.	8cc\	.	.	.	.	.	.	.	.	.
4E-\	.	8r	.	8r	.	8r	.	4e-/	.	.	4r	.	4r	.	.
.	.	8f\	.	8a\	.	8cc\	[[	.	.	.	.	.	.	.	.
=43	=43	=43	=43	=43	=43	=43	=43	=43	=43	=43	=43	=43	=43	=43	=43
!	!	!	!	!	!	!	!LO:DY:b	!	!	!	!	!	!	!	!LO:DY:rj
4D\	.	8r	.	8r	.	8r	f	2d/	.	.	2b-\	Niech	2ff\	Wspie-	f
.	.	8f\L	.	8b-\L	.	8ff\L	.	.	.	.	.	.	.	.	.
4r	.	8f\	.	8b-\	.	8ff\	.	.	.	.	.	.	.	.	.
.	.	8f\J	.	8b-\J	.	8ff\J	.	.	.	.	.	.	.	.	.
8D\	.	8r	.	8r	.	8r	.	4d/	.	.	4b-\	iak	4ff\	-ray	.
8r	.	8f\	.	8b-\	.	8ff\	.	.	.	.	.	.	.	.	.
=44	=44	=44	=44	=44	=44	=44	=44	=44	=44	=44	=44	=44	=44	=44	=44
*	*	*	*	*	*	*	*	*	*	*	*^	*	*	*	*
!	!	!	!	!	!	!	!	!	!	!	!	!	!	!LO:TX:t=P:problem=diminuendolike accent	!	!
8C/	.	8r	.	8r	.	8r	.	2c/	.	.	(4.g/	2ryy	bra-	(8.ff^\L	wszy-	.
8r	.	8c\	.	8g/	.	8ff\	.	.	.	.	.	.	.	.	.	.
.	.	.	.	.	.	.	.	.	.	.	.	.	.	32gg\LL	.	.
.	.	.	.	.	.	.	.	.	.	.	.	.	.	32ff\JJJ)	.	.
8C/	.	8r	.	8r	.	8r	.	.	.	.	.	.	.	4ee-\	.	]
8r	.	8c/	.	8a/	.	8ee-\	.	.	.	.	8a/)	.	.	.	.	.
8BB-/	.	8r	.	8r	.	8r	.	4B-/	.	.	4b-/	4b-\	-cia	4dd\	-stkie	.
8r	.	8B-/	.	8b-/	.	8dd\	.	.	.	.	.	.	.	.	.	.
*	*	*	*	*	*	*	*	*	*	*	*v	*v	*	*	*	*
=45	=45	=45	=45	=45	=45	=45	=45	=45	=45	=45	=45	=45	=45	=45	=45
!	!LO:DY:rj:a	!	!	!	!	!	!	!	!	!	!	!	!	!	!LO:DY:a
4F\	p	8r	.	8r	.	8r	.	2f/	.	.	(4b-/	w_zgo-	2cc\	do-	p
!	!	!	!	!	!	!	!LO:DY:rj:b	!	!	!	!	!	!	!	!
.	.	8f\L	.	8b-|/L	.	8cc\L	p	.	.	.	.	.	.	.	.
4r	.	8f\	.	(8a/	.	8cc\	.	.	.	.	8a/L	.	.	.	.
.	.	8f\J	.	8g/J)	.	8cc\J	.	.	.	.	8g/J)	.	.	.	.
8F\	.	8r	.	8r	.	8r	.	4f/	.	.	4a/	-dzie	4ff\	-bre	.
8r	.	8f\	.	8a/	.	8ff\	.	.	.	.	.	.	.	.	.
=46	=46	=46	=46	=46	=46	=46	=46	=46	=46	=46	=46	=46	=46	=46	=46
8G|\	.	8r	.	8r	.	8r	<	(4g/	.	.	(4b-/	ży-	2ee-\	chę-	<
8r	.	8g\	.	8b-\	.	8ee-\L	.	.	.	.	.	.	.	.	.
8A|\	.	8r	.	8r	.	8r	.	4a/)	.	.	4cc/)	.	.	.	.
8r	.	8f\	.	8cc\	.	8ee-\J	[ >	.	.	.	.	.	.	.	[
8B-|\	.	8r	.	8r	.	8r	.	4b-/	.	.	4b-/	-ią	4dd\	-ci	>
8r	.	8f\	.	8b-\	.	8dd\	]]	.	.	.	.	.	.	.	]]
!!LO:LB:g=original
=47	=47	=47	=47	=47	=47	=47	=47	=47	=47	=47	=47	=47	=47	=47	=47
!	!	!	!	!	!	!	!LO:DY:b	!	!	!	!	!	!	!	!LO:DY:rj
4D\	.	8r	.	8r	.	8r	f	2d/	.	.	2b-\	Niech	2ff\	Wspie-	f
*	*	*tremolo	*	*tremolo	*	*tremolo	*	*	*	*	*	*	*	*	*
.	.	8fL 8d\	.	8b-\L	.	8ff\L	.	.	.	.	.	.	.	.	.
4r	.	8f 8d\	.	8b-\	.	8ff\	.	.	.	.	.	.	.	.	.
.	.	8fJ 8d\	.	8b-\J	.	8ff\J	.	.	.	.	.	.	.	.	.
*	*	*Xtremolo	*	*Xtremolo	*	*Xtremolo	*	*	*	*	*	*	*	*	*
8D\	.	8r	.	8r	.	8r	.	4d/	.	.	4b-\	iak	4ff\	-ray	.
8r	.	8f 8d\	.	8b-\	.	8ff\	.	.	.	.	.	.	.	.	.
=48	=48	=48	=48	=48	=48	=48	=48	=48	=48	=48	=48	=48	=48	=48	=48
8C/	.	8r	.	8r	.	8r	.	2c/	.	.	2g/	bra-	(4ff\	wszy-	.
8r	.	8c\	.	8g/	.	8ff\	.	.	.	.	.	.	.	.	.
8C/	.	8r	.	8r	.	8r	.	.	.	.	.	.	4ee-\)	.	.
8r	.	8c\	.	8g/	.	8ee-\	.	.	.	.	.	.	.	.	.
8E-\	.	8r	.	8r	.	8r	.	4e-/	.	.	4g/	-cia	4cc\	-stkie	.
8r	.	8e-\	.	8g/	.	8cc\	.	.	.	.	.	.	.	.	.
=49	=49	=49	=49	=49	=49	=49	=49	=49	=49	=49	=49	=49	=49	=49	=49
!	!	!	!	!	!	!	!LO:DY:b	!	!	!LO:DY:rj	!	!	!	!	!LO:DY:rj
4F\	.	4f\	.	8r	.	8r	p	2f/	.	p	2b-\	w_zgo-	2dd\	do-	p
.	.	.	.	8b-\L	.	8dd\L	.	.	.	.	.	.	.	.	.
4r	.	4r	.	8b-\	.	8dd\	.	.	.	.	.	.	.	.	.
.	.	.	.	8b-\J	.	8dd\J	.	.	.	.	.	.	.	.	.
4En\	sf	4g\	sf	8r	.	8r	.	4en^/	.	.	4b-\	-dzie	4dd-X^\	-bre	.
!	!	!	!	!	!	!	!LO:DY:rj:b	!	!	!	!	!	!	!	!
.	.	.	.	8b-\	.	8dd-X\	sf	.	.	.	.	.	.	.	.
=50	=50	=50	=50	=50	=50	=50	=50	=50	=50	=50	=50	=50	=50	=50	=50
8F\	.	8f\L	.	8r	.	8r	.	4f/	.	.	4b-\	ży-	4ddn\	chę-	.
8r	.	8f\J	.	8b-\	.	8ddn\	.	.	.	.	.	.	.	.	.
!	!	!	!	!	!	!	!LO:HP:b	!	!	!	!	!	!	!	!
8FF/	.	8r	.	8r	.	8r	<	4f/	.	.	4a\	-ią.	(4cc\	-ci	<
8r	.	8f\	.	8a\	.	8cc\	.	.	.	.	.	.	.	.	.
8F\	.	8r	.	8r	.	8r	.	4r	.	.	4r	.	4cc#X\)	.	.
8r	.	8f\	.	8a\	.	8cc#X\	[[	.	.	.	.	.	.	.	[[
=51:|!	=51:|!	=51:|!	=51:|!	=51:|!	=51:|!	=51:|!	=51:|!	=51:|!	=51:|!	=51:|!	=51:|!	=51:|!	=51:|!	=51:|!	=51:|!
*>E	*>E	*>E	*>E	*>E	*>E	*>E	*>E	*>E	*>E	*>E	*>E	*>E	*>E	*>E	*>E
*^	*	*	*	*	*	*	*	*	*	*	*	*	*	*	*
!	!	!	!	!	!	!	!	!LO:DY:rj:b	!	!	!	!	!	!	!	!
[y2.B-/yy	2.ryy	.	[y2.B-/yy	.	(y2f/yy	.	(2dd\	p	2B-/	.	.	2f/	.	2dd\	Któ-	.
!	!	!	!	!	!LO:TUP:b:problem=klamra łukowa, łuczek zamiast numeru	!	!	!	!	!	!	!LO:TUP:b:problem=łuczek zamiast numeru	!	!LO:TUP:a:problem=klamra łukowa, łuczek zamiast numeru	!	!
.	.	.	.	.	12e-/Lyy	.	12cc\L	.	4B-/	.	.	12e-/L	.	12cc\L	-rzy	.
.	.	.	.	.	12f/yy	.	12dd\	.	.	.	.	12f/	.	12dd\	.	.
.	.	.	.	.	12e-/Jyy	.	12cc\J	.	.	.	.	12e-/J	.	12cc\J	.	.
!!LO:PB:g=original
=52	=52	=52	=52	=52	=52	=52	=52	=52	=52	=52	=52	=52	=52	=52	=52	=52
!	!	!	!	!	!	!	!LO:TX:b:t=P:problem=koniec łuku na dole	!	!	!	!	!	!	!	!	!
2B-/]yy	2.ryy	.	2B-/]yy	.	2d/)yy	.	4b-/	.	2B-/	.	.	2d/	.	(4b-/	iuż	.
.	.	.	.	.	.	.	4f/)	.	.	.	.	.	.	4f/)	.	.
(y4A/yy	.	.	4A/yy	.	4f|/yy	.	4cc~\	.	4A/	.	.	4f/	.	4cc\	są	.
=53	=53	=53	=53	=53	=53	=53	=53	=53	=53	=53	=53	=53	=53	=53	=53	=53
4B-/yy	2.ryy	.	(y4B-/yy	.	(y2b-\yy	.	(2dd\	.	(4B-/	.	.	2b-\	.	2dd\	przy	.
4g/yy	.	.	4g\yy	.	.	.	.	.	4g/)	.	.	.	.	.	.	.
4e-/yy	.	.	4e-yy 4c\)yy	.	4g/yy	.	8ff\L	.	4c/	.	.	4g/	.	(8ff\L	Twym	.
.	.	.	.	.	.	.	8ee-\J	.	.	.	.	.	.	8ee-\J)	.	.
=54	=54	=54	=54	=54	=54	=54	=54	=54	=54	=54	=54	=54	=54	=54	=54	=54
2f/)yy	2.ryy	.	2.f\yy	.	(y2b-\)yy	.	2dd\	.	2f/	.	.	2b-\	.	2dd\	tro-	.
4F/yy	.	py	.	.	4a\)yy	.	4cc\)	.	4f/	.	.	4a\	.	4cc\	-nie	.
*v	*v	*	*	*	*	*	*	*	*	*	*	*	*	*	*	*
=55	=55	=55	=55	=55	=55	=55	=55	=55	=55	=55	=55	=55	=55	=55	=55
!	!	!	!	!	!	!	!	!	!	!LO:DY:rj	!	!	!	!	!LO:DY:rj
4G\yy	.	4g\yy	.	8ryy	.	8r	.	2g/	.	f	2g/	.	2b-\	Ci	f
.	.	.	.	(y8g'/Lyy	.	8b-\L	.	.	.	.	.	.	.	.	.
4ryy	.	4ryy	.	8g'/yy	.	8b-\	.	.	.	.	.	.	.	.	.
.	.	.	.	8g'/J)yy	.	8b-\J	.	.	.	.	.	.	.	.	.
4E-\yy	sfy	4e-\yy	.	8ryy	.	8r	.	4e-/	.	.	4g/	.	4cc\	co	.
!	!	!	!	!	!	!	!LO:DY:b	!	!	!	!	!	!	!	!
.	.	.	.	8g/yy	sfy	8cc\	sf	.	.	.	.	.	.	.	.
=56	=56	=56	=56	=56	=56	=56	=56	=56	=56	=56	=56	=56	=56	=56	=56
4F\yy	.	4f\yy	.	8ryy	.	8r	.	2f/	.	.	(4.f/	.	(4.a/	ży-	.
.	.	.	.	8f'/Lyy	.	8a~\L	.	.	.	.	.	.	.	.	.
4ryy	.	4ryy	.	(y8f/yy	.	(8a\	.	.	.	.	.	.	.	.	.
.	.	.	.	8g/yy	.	8b-\	.	.	.	.	8g/)	.	8b-/)	.	.
4ryy	.	4ryy	.	8a/yy	.	8cc\	.	4f/	.	.	(8a/L	.	(8cc\L	-ią	.
.	.	.	.	8b-/J)yy	.	8dd\J)	.	.	.	.	8b-/J)	.	8dd\J)	.	.
=57	=57	=57	=57	=57	=57	=57	=57	=57	=57	=57	=57	=57	=57	=57	=57
4F\yy	.	4f\yy	.	8ryy	.	8r	.	2f/	.	.	(4.cc\	.	(4.ee-\	do	.
.	.	.	.	8cc\Lyy	.	8ee-~\L	.	.	.	.	.	.	.	.	.
4ryy	.	4ryy	.	(y8cc\yy	.	(8ee-\	.	.	.	.	.	.	.	.	.
.	.	.	.	8a\J)yy	.	8cc\J)	.	.	.	.	8a\)	.	8cc\)	.	.
(y8D\Lyy	.	(y8d/Lyy	.	(y8b-\Lyy	.	(8dd\L	.	8d/L	.	.	(8b-\L	.	(8dd\L	tey	.
8BB-\J)yy	.	8B-/J)yy	.	8dd\J)yy	.	8ff\J)	.	8B-/J	.	.	8dd\J)	.	8ff\J)	.	.
=58	=58	=58	=58	=58	=58	=58	=58	=58	=58	=58	=58	=58	=58	=58	=58
8F\yy	.	8f\yy	.	8ryy	.	8r	.	4f/	.	.	4b-\	.	4dd\	chwi-	<
8ryy	.	8ryy	.	8b-\yy	.	8dd\	.	.	.	.	.	.	.	.	.
8FF/yy	.	8F/yy	.	8ryy	.	8r	.	2f/	.	.	2a/	.	4cc\	.	.
8ryy	.	8ryy	.	8a\yy	.	8cc\	.	.	.	.	.	.	.	.	.
8F\yy	.	8f\yy	.	8ryy	.	8r	.	.	.	.	.	.	4cc#X\	-li	[ >
8ryy	.	8ryy	.	8a\yy	.	8cc#X\	.	.	.	.	.	.	.	.	]]
!!LO:LB:g=original
=59	=59	=59	=59	=59	=59	=59	=59	=59	=59	=59	=59	=59	=59	=59	=59
!	!	!	!	!	!	!	!	!	!	!	!	!	!	!	!LO:DY:rj
[y2.BB-/yy	py	[y2.B-/yy	py	(y4b-\yy	.	(4dd\	.	2B-/	.	.	([4b-\	.	([4dd\	Co	p
!	!	!	!	!LO:TUP:a:problem=łuczek zamiast numeru	!	!LO:TUP:a:problem=łuczek zamiast numeru	!	!	!	!	!LO:TUP:a:problem=łuczek zamiast numeru	!	!LO:TUP:a:problem=łuczek zamiast numeru	!	!
.	.	.	.	12b-\Lyy	.	12dd\L	.	.	.	.	12b-\L]	.	12dd\L]	.	.
.	.	.	.	12a\yy	.	12cc\	.	.	.	.	12a\	.	12cc\	.	.
.	.	.	.	12cc\Jyy	.	12dd\J	.	.	.	.	12b-\J	.	12dd\J	.	.
!	!	!	!	!LO:TUP:b:problem=łuczek zamiast numeru	!	!LO:TUP:a:problem=łuczek zamiast numeru	!	!	!	!	!LO:TUP:b:problem=łuczek zamiast numeru	!	!LO:TUP:a:problem=łuczek zamiast numeru	!	!
.	.	.	.	6g/yy	.	12ff\L	.	4B-/	.	.	6g/)	.	12ff\L	.	.
.	.	.	.	.	.	12ee-\	.	.	.	.	.	.	12ee-\J)	.	.
.	.	.	.	(y12a/)yy	.	12cc\J	.	.	.	.	12a/	.	12cc|\	po	.
=60	=60	=60	=60	=60	=60	=60	=60	=60	=60	=60	=60	=60	=60	=60	=60
2BB-/]yy	.	2B-/]yy	.	4b-/yy	.	4dd\	.	2B-/	.	.	(4b-/	.	(4dd\	na-	.
.	.	.	.	4d/)yy	.	4b-\)	.	.	.	.	4d/)	.	4b-\)	.	.
4AA/yy	.	4A/yy	.	4f'/yy	.	4cc|\	.	4A/	.	.	4f/	.	4cc\	-szym	.
=61	=61	=61	=61	=61	=61	=61	=61	=61	=61	=61	=61	=61	=61	=61	=61
(4BB-/	.	(4B-\	.	(2b-\	.	(2dd-X\	.	(4B-/	.	.	2b-/	.	2dd-X\	przyi-	.
4G-X\	.	4g-X\	.	.	.	.	.	4g-X/)	.	.	.	.	.	.	.
4E-\)	.	4e-\	.	4g-X/	.	8ff\L	.	4e-/	.	.	4g-X/	.	(8ff\L	-dą	.
.	.	.	.	.	.	8ee-\J	.	.	.	.	.	.	8ee-\J)	.	.
=62	=62	=62	=62	=62	=62	=62	=62	=62	=62	=62	=62	=62	=62	=62	=62
(2F\	.	2.f\)	.	2b-\	.	2dd-X\	.	2f/	.	.	2b-/	.	2dd-X\	zgo-	.
4E-\)	.	.	.	4a\)	.	4cc\)	.	4e-/	.	.	4a/	.	4cc\	-nie	.
=63	=63	=63	=63	=63	=63	=63	=63	=63	=63	=63	=63	=63	=63	=63	=63
!	!LO:DY:rj	!	!	!	!	!	!	!	!	!	!	!	!	!	!LO:DY:rj
4D\	f	8r	.	8r	.	8r	.	2d/	.	.	2b-/	.	2ff\	Sprawy	f
!	!	!	!	!	!	!	!LO:DY:rj:b	!	!	!	!	!	!	!	!
.	.	8f\L	.	8b-\L	.	8ff'\L	f	.	.	.	.	.	.	.	.
4r	.	8f\	.	8b-\	.	8ff'\	.	.	.	.	.	.	.	.	.
.	.	8f\J	.	8b-\J	.	8ff'\J	.	.	.	.	.	.	.	.	.
8D\	.	8r	.	8r	.	8r	.	4d/	.	.	4b-/	.	4ff\	by	.
8r	.	8f\	.	8b-\	.	8ff\	.	.	.	.	.	.	.	.	.
=64	=64	=64	=64	=64	=64	=64	=64	=64	=64	=64	=64	=64	=64	=64	=64
8C/	.	8r	.	8r	.	8r	.	2c/	.	.	(4.g/	.	(8.ff\L	Bo-	.
8r	.	8c\	.	8g/	.	8ff\	.	.	.	.	.	.	.	.	.
.	.	.	.	.	.	.	.	.	.	.	.	.	32gg\LL	.	.
.	.	.	.	.	.	.	.	.	.	.	.	.	32ff\JJJ	.	.
8C/	.	8r	.	8r	.	8r	.	.	.	.	.	.	4ee-\)	.	.
8r	.	8c\	.	8a/	.	8ee-\	.	.	.	.	8a/)	.	.	.	.
8BB-/	.	8r	.	8r	.	8r	.	4B-/	.	.	4b-/	.	4dd\	-że	.
8r	.	8B-/	.	8b-/	.	8dd\	.	.	.	.	.	.	.	.	.
!!LO:PB:g=original
=65	=65	=65	=65	=65	=65	=65	=65	=65	=65	=65	=65	=65	=65	=65	=65
!	!	!	!	!	!	!	!	!	!	!	!	!	!	!	!LO:DY:rj
4F\	.	8r	.	8r	.	8r	.	2f/	.	.	(4b-/	.	2cc\	w_To-	p
!	!	!	!	!	!	!	!LO:DY:rj:b	!	!	!	!	!	!	!	!
.	.	8f\L	.	(8b-/L	.	8cc\L	p	.	.	.	.	.	.	.	.
4r	.	8f\	.	8a/	.	8cc\	.	.	.	.	8a/L	.	.	.	.
.	.	8f\J	.	8g/J)	.	8cc\J	.	.	.	.	8g/J)	.	.	.	.
8F\	.	8r	.	8r	.	8r	.	4F/	.	.	4a/	.	4ff\	-bie	.
8r	.	8f\	.	8a/	.	8ff\	.	.	.	.	.	.	.	.	.
=66	=66	=66	=66	=66	=66	=66	=66	=66	=66	=66	=66	=66	=66	=66	=66
8G\	.	8r	.	8r	.	8r	.	(4G/	.	.	(4b-\	.	2ee-\	ży-	<
8r	.	8g\	.	8b-X\	.	8ee-\	<	.	.	.	.	.	.	.	.
8A\	.	8r	.	8r	.	8r	.	4A/)	.	.	4cc\)	.	.	.	.
8r	.	8f\	.	8cc\	.	8ee-\	[ >	.	.	.	.	.	.	.	[ >
8B-\	.	8r	.	8r	.	8r	.	4B-/	.	.	4b-\	.	4dd\	-li	.
8r	.	8f\	.	8b-\	.	8dd\	]	.	.	.	.	.	.	.	]]
=67	=67	=67	=67	=67	=67	=67	=67	=67	=67	=67	=67	=67	=67	=67	=67
!	!	!	!	!	!	!	!	!	!	!LO:DY:rj	!	!	!	!	!LO:DY:rj
4Bn\	.	8r	.	8r	.	8r	.	2Bn/	.	f	2a-X/	.	2ff\	Spraw	f
!	!	!	!	!	!	!	!LO:DY:rj:b	!	!	!	!	!	!	!	!
.	.	8dL 8Bn\	.	8a-X\L	.	8ff\L	f	.	.	.	.	.	.	.	.
4r	.	8d 8B\	.	8a-\	.	8ff\	.	.	.	.	.	.	.	.	.
.	.	8dJ 8B\	.	8a-\J	.	8ff\J	.	.	.	.	.	.	.	.	.
4BBn/	.	8r	.	8r	.	8r	.	4B/	.	.	4a-/	.	4ff\	by	.
.	.	8d 8B\	.	8a-/	.	8ff\	.	.	.	.	.	.	.	.	.
=68	=68	=68	=68	=68	=68	=68	=68	=68	=68	=68	=68	=68	=68	=68	=68
8C/	.	8r	.	8r	.	8r	.	2c/	.	.	2g/	.	(4.ff\	Bo-	<
8r	.	8c\	.	8g/	.	8ff\	.	.	.	.	.	.	.	.	.
8C/	.	8r	.	8r	.	8r	.	.	.	.	.	.	.	.	.
8r	.	8c\	.	8g/	.	8ee-\	.	.	.	.	.	.	8ee-\)	.	[
!	!	!	!	!	!	!	!LO:HP:b	!	!	!	!	!	!	!	!
(8E-\L	.	(8e-\L	<	(8g/L	.	(8cc\L	<	(8e-/L	.	.	(8g/L	.	(8cc\L	-że	>
8En\J)	.	8en\J)	[[	8b-/J)	.	8gg\J)	[[	8en/J)	.	.	8b-/J)	.	8gg\J)	.	]]
=69	=69	=69	=69	=69	=69	=69	=69	=69	=69	=69	=69	=69	=69	=69	=69
!	!LO:DY:rj:a	!	!	!	!	!	!LO:DY:b	!	!	!LO:DY:rj	!	!	!	!	!LO:DY:rj
8F\	p	8r	.	8r	.	8r	p	[2f/	.	p	([4b-\	.	([4dd\	w_To-	p
8r	.	8f\	.	8b-\	.	8dd\	.	.	.	.	.	.	.	.	.
8FF/	.	8r	.	8r	.	8r	.	.	.	.	8b-\L]	.	8dd\L]	.	.
8r	.	8f\	.	8b-\	.	8dd\	.	.	.	.	32cc\LL	.	32ee-\LL	.	.
.	.	.	.	.	.	.	.	.	.	.	32b-\	.	32dd\	.	.
.	.	.	.	.	.	.	.	.	.	.	32a\	.	32cc\	.	.
.	.	.	.	.	.	.	.	.	.	.	32b-\JJJ	.	32dd\JJJ)	.	.
(8.F\L	.	8r	.	8r	.	8r	.	8.f/]	.	.	8.cc\)	.	8.ee-\	.	.
.	.	8f\	.	8a\	.	8cc\	.	.	.	.	.	.	.	.	.
16E-\Jk)	.	.	.	.	.	.	.	16e-/	.	.	16a/	.	16cc\	-bie	.
!!LO:LB:g=original
=70	=70	=70	=70	=70	=70	=70	=70	=70	=70	=70	=70	=70	=70	=70	=70
!	!LO:DY:rj	!	!	!	!	!	!	!	!	!	!	!	!	!	!LO:HP:t=cresc&colon;
4D\	f	8r	.	8r	.	8r	.	4d/	.	.	4b-\	.	4ff\	ży-	<
!	!	!	!	!	!	!	!LO:DY:rj:b	!	!	!	!	!	!	!	!
.	.	8fL 8d\	.	8b-\L	.	8ff'\L	f	.	.	.	.	.	.	.	.
4r	.	8f 8d\	.	8b-\	.	8ff'\	.	8d/	.	.	8b-\	.	8ff\	-li	.
.	.	8fJ 8d\	.	8b-\J	.	8ff'\J	.	8r	.	.	8r	.	8r	.	.
4D\	.	8r	.	8r	.	8r	.	4d/	.	.	4b-\	by	4ff#X\	.	.
.	.	8f#X 8d\	.	8b-\	.	8ff#X\	.	.	.	.	.	.	.	.	.
=71	=71	=71	=71	=71	=71	=71	=71	=71	=71	=71	=71	=71	=71	=71	=71
!	!	!	!	!	!	!	!	!	!	!	!	!	!	!	!LO:DY:rj
4E-\	.	8r	.	8r	.	8r	.	2e-/	.	.	2b-\	Bo-	2gg\	.	f
.	.	8gL 8e-\	.	8b-\L	.	8gg\L	.	.	.	.	.	.	.	.	>
4r	.	8g 8e-\	.	8b-\	.	8gg\	.	.	.	.	.	.	.	.	.
.	.	8gJ 8e-\	.	8b-\J	.	8gg\J	.	.	.	.	.	.	.	.	.
4En^<\	.	8r	.	8r	.	8r	.	4en/	.	.	4b-\	-że	4cc#X\	.	]
.	.	8g 8en\	.	8b-\	.	8cc#X^<\	.	.	.	.	.	.	.	.	.
=72	=72	=72	=72	=72	=72	=72	=72	=72	=72	=72	=72	=72	=72	=72	=72
!	!	!	!	!	!	!	!LO:DY:b	!	!	!	!	!	!	!	!LO:DY:rj
8F\	p	8r	.	8r	.	8r	p	2f/	.	.	([4b-\	w_To-	([4dd\	.	p
8r	.	8f\	.	8b-\	.	8dd\	.	.	.	.	.	.	.	.	.
*	*	*rep	*	*	*	*	*	*	*	*	*	*	*	*	*
8F\	.	8r	.	8r	.	8r	.	.	.	.	8b-\L]	.	8dd\L]	.	.
8r	.	8f\	.	8b-\	.	8dd\	.	.	.	.	32cc\LL	.	32ee-\LL	.	.
*	*	*Xrep	*	*	*	*	*	*	*	*	*	*	*	*	*
.	.	.	.	.	.	.	.	.	.	.	32b-\	.	32dd\	.	.
.	.	.	.	.	.	.	.	.	.	.	32a\	.	32cc\	.	.
.	.	.	.	.	.	.	.	.	.	.	32b-\JJJ	.	32dd\JJJ)	.	.
8F\	.	8r	.	8r	.	8r	.	4f 4F/	.	.	8.cc\)	.	8.ee-\	.	.
8r	.	8e-\	.	8a\	.	8cc\	.	.	.	.	.	.	.	.	.
.	.	.	.	.	.	.	.	.	.	.	16a\	-bie	16cc\	.	.
=73	=73	=73	=73	=73	=73	=73	=73	=73	=73	=73	=73	=73	=73	=73	=73
!LO:TX:t=P:problem=mixed beam	!	!	!	!	!	!	!	!	!	!	!	!	!	!	!
8BB-'/L	.	8B-'/L	.	8r	.	8r	.	4B-/	.	.	4b-\	ży-	4b-\	.	.
(8B-\	.	(8B-/	.	(8b-\L	.	(8b-\L	.	.	.	.	.	.	.	.	.
8A\	.	8A/	.	(8a\)	.	8a\	.	8B-/	.	.	8b-\	-li	8b-\	.	.
8B-\J)	.	8B-/J)	.	8b-\J)	.	8b-\J)	.	8r	.	.	8r	.	8r	.	f
!	!LO:DY:rj	!	!LO:DY:rj	!	!	!	!LO:DY:rj	!	!	!	!	!	!LO:TX:t=P:problem=diminuendolike accent	!	!
8.A-X|\L	f	8.B-|\L	f	8.b-|\L	.	8.b-|\L	f	8.b-/	.	.	8.b-\	spraw	8.b-^\	.	.
16A-|\Jk	.	16f|\Jk	.	16cc|\Jk	.	16dd|\Jk	.	16a-X/	.	.	16b-\	to	16dd\	.	]]
=74	=74	=74	=74	=74	=74	=74	=74	=74	=74	=74	=74	=74	=74	=74	=74
!	!LO:DY:rj	!	!LO:DY:rj	!	!	!	!	!	!	!	!	!	!	!	!LO:DY:rj
(4G\	p	(4g\	p <	8r	.	8r	.	(4g/	.	.	2b-\	Bo-	2ee-\	.	p
!	!	!	!	!	!	!	!LO:DY:rj:b	!	!	!	!	!	!	!	!
.	.	.	.	8b-\	.	8ee-\	p	.	.	.	.	.	.	.	.
4G-X\	.	4g-X\	[ >	8r	.	8r	.	4g-X/)	.	.	.	.	.	.	.
.	.	.	.	8b-\	.	8ee-\	.	.	.	.	.	.	.	.	.
4F\)	.	4f\)	]	8r	.	8r	.	4f/	.	.	4b-\	-że	4dd\	.	.
.	.	.	.	8b-\	.	8dd\	.	.	.	.	.	.	.	.	.
!!LO:PB:g=original
=75	=75	=75	=75	=75	=75	=75	=75	=75	=75	=75	=75	=75	=75	=75	=75
*	*	*	*	*	*	*	*	*	*	*	*^	*	*	*	*
8En\	sf	8r	.	8r	.	8r	.	2.en/	.	.	2.b-/	2.g\	.	2.dd-X^\	.	.
!	!	!	!	!	!	!	!LO:DY:b	!	!	!	!	!	!	!	!	!
8r	.	8g 8en\	sf	8b-\	sf	8dd-X^<\	sf	.	.	.	.	.	.	.	.	.
*	*	*rep	*	*rep	*	*rep	*	*	*	*	*	*	*	*	*	*
!	!LO:DY:rj	!	!	!	!	!	!LO:DY:b	!	!	!	!	!	!	!	!	!
8E\	p	8r	p	8r	p	8r	p	.	.	.	.	.	.	.	.	.
8r	.	8g 8e\	.	8b-\	.	8dd-\	.	.	.	.	.	.	.	.	.	.
*	*	*Xrep	*	*Xrep	*	*Xrep	*	*	*	*	*	*	*	*	*	*
*	*	*rep	*	*rep	*	*rep	*	*	*	*	*	*	*	*	*	*
8E\	.	8r	.	8r	.	8r	.	.	.	.	.	.	.	.	.	.
8r	.	8g 8e\	.	8b-\	.	8dd-\	.	.	.	.	.	.	.	.	.	.
*	*	*Xrep	*	*Xrep	*	*Xrep	*	*	*	*	*	*	*	*	*	*
*	*	*	*	*	*	*	*	*	*	*	*v	*v	*	*	*	*
=76	=76	=76	=76	=76	=76	=76	=76	=76	=76	=76	=76	=76	=76	=76	=76
4F\	.	8r	.	8r	.	8r	.	2f/	.	.	(4b-/	.	2cc\	.	.
.	.	(8f'\L	.	8b-'/L	.	(8cc'\L	.	.	.	.	.	.	.	.	.
4r	.	8f'\	.	(8a/	.	8cc'\	.	.	.	.	8a/L	.	.	.	.
.	.	8f'\J)	.	8g/J)	.	8cc'\J)	.	.	.	.	8g/J)	.	.	.	.
8F\	.	8r	.	8r	.	8r	.	4f/	.	.	4a/	.	4ff\	.	.
8r	.	8f\	.	8a/	.	8ff'\	.	.	.	.	.	.	.	.	.
=77	=77	=77	=77	=77	=77	=77	=77	=77	=77	=77	=77	=77	=77	=77	=77
!LO:TX:t=P:problem=mixed beam	!LO:DY:rj:a	!	!	!	!	!	!LO:DY:rj:b	!	!	!LO:DY:rj	!	!	!	!	!LO:DY:rj
8BB-'/L	f	8B-'\L	.	8b-'\L	.	8dd'\L	f	[2.B-/	.	f	[2.b-\	.	[2.dd\	.	f
(8B-\	.	(8b-\	.	(8b-\	.	(8b-\	.	.	.	.	.	.	.	.	.
8A\	.	8a\	.	8a\	.	8a\	.	.	.	.	.	.	.	.	.
8B-\)	.	8b-\)	.	8b-\)	.	8b-\)	.	.	.	.	.	.	.	.	.
8d'\	.	8dd'\	.	8dd'\	.	8dd'\	.	.	.	.	.	.	.	.	.
8B-'\J	.	8b-'\J	.	8b-'\J	.	8b-'\J	.	.	.	.	.	.	.	.	.
=78	=78	=78	=78	=78	=78	=78	=78	=78	=78	=78	=78	=78	=78	=78	=78
!	!	!	!	!LO:TX:a:t=Unis	!	!	!	!	!	!	!	!	!	!	!
8F'\L	.	8f'\L	.	8f'/Lyy	.	8f'/L	.	2.B-/_	.	.	2.b-\_	.	2.dd\_	.	.
(8F\	.	(8f\	.	(y8f/yy	.	(8f/	.	.	.	.	.	.	.	.	.
8En\	.	(8en\)	.	8en/yy	.	8en/	.	.	.	.	.	.	.	.	.
8F\)	.	8f\)	.	8f/)yy	.	8f/)	.	.	.	.	.	.	.	.	.
8D'\	.	8d'\	.	8d'/yy	.	8d'/	.	.	.	.	.	.	.	.	.
8F'\J	.	8f'\J	.	8f'/Jyy	.	8f'/J	.	.	.	.	.	.	.	.	.
=79	=79	=79	=79	=79	=79	=79	=79	=79	=79	=79	=79	=79	=79	=79	=79
4BB-/	.	4f 4B-\	.	4b-yy 4d/yy	.	4b- 4d/	.	4B-/]	.	.	4b-\]	.	4dd\]	.	.
4r	.	4r	.	4ryy	.	4r	.	4r	.	.	4r	.	4r	.	.
4r	.	4r	.	4ryy	.	4r	.	4r	.	.	4r	.	4r	.	.
=80||	=80||	=80||	=80||	=80||	=80||	=80||	=80||	=80||	=80||	=80||	=80||	=80||	=80||	=80||	=80||
!	!	!	!	!	!	!	!	!LO:TX:t=P:problem=brak taktów nr 82-83	!	!	!LO:TX:t=P:problem=brak taktów nr 82-83	!	!LO:TX:t=P:problem=brak taktów nr 82-83	!	!
4BB-/	.	4f 4B-\	.	4dd 4f 4B-/	.	4bb- 4dd 4f\	.	2.ryy	.	.	2.ryy	.	2.ryy	.	.
4r	.	4r	.	4r	.	4r	.	.	.	.	.	.	.	.	.
8.r	.	8.r	.	8.r	.	8.r	.	.	.	.	.	.	.	.	.
16BB-/	.	16B-/	.	16B-/	.	16B-/	.	.	.	.	.	.	.	.	.
=81	=81	=81	=81	=81	=81	=81	=81	=81	=81	=81	=81	=81	=81	=81	=81
!	!	!	!	!	!	!LO:N:vis=2.	!	!	!	!	!	!	!	!	!
2BB-/	.	2B-/	.	2B-/	.	2B-/	.	2.ryy	.	.	2.ryy	.	2.ryy	.	.
4r	.	4r	.	4r	.	4r	.	.	.	.	.	.	.	.	.
==	==	==	==	==	==	==	==	==	==	==	==	==	==	==	==
*-	*-	*-	*-	*-	*-	*-	*-	*-	*-	*-	*-	*-	*-	*-	*-
!!!system-decoration: {(g1)}{(g2)}
!!!RDF**kern: > = above
!!!RDF**kern: < = below
!!!RDF**kern: | = vertical stroke
!!!AIN: 6 empty 1 viola
!!!ENC: Andrzej Kubiczek
!!!END: 2021-05-01
!!!ENC: Marcin Jachim
!!!END: 2021-04-12
